public/icons/polygon.svg

<svg width="118" height="43" viewBox="0 0 118 43" fill="none" xmlns="http://www.w3.org/2000/svg">
<path d="M20.5615 24.4884C20.5615 25.1622 20.5561 25.8404 20.5635 26.5183C20.5676 26.8828 20.6258 27.2371 20.8358 27.5522C21.0121 27.8171 21.2495 28.0359 21.528 28.1899C22.4655 28.7174 23.4065 29.2384 24.3376 29.7771C25.0403 30.1855 25.7083 30.1933 26.4134 29.7567C27.3663 29.1673 28.3481 28.6241 29.3176 28.062C29.8669 27.7438 30.1313 27.2588 30.1344 26.6327C30.1401 25.5096 30.1343 24.3866 30.1367 23.2636C30.1388 22.5796 29.8441 22.0651 29.2581 21.7227C28.7109 21.4028 28.1561 21.0955 27.6042 20.7831C27.1805 20.5449 26.7534 20.3067 26.3324 20.0651C25.7063 19.7047 25.0876 19.6632 24.4403 20.0355C22.3202 21.2544 20.1959 22.4661 18.0674 23.6703C16.7288 24.4314 15.3893 25.1904 14.0487 25.9473C13.3922 26.3165 12.7433 26.2992 12.0821 25.9218C10.2042 24.8501 8.31586 23.7969 6.43464 22.7304C5.86837 22.4098 5.56618 21.9282 5.56788 21.2599C5.5731 19.0592 5.5731 16.8594 5.56788 14.6603C5.56788 14.0403 5.82413 13.5659 6.3608 13.2572C7.27316 12.7321 8.19063 12.2152 9.10708 11.6972C10.0826 11.1459 11.0594 10.5961 12.0375 10.0478C12.325 9.88646 12.6204 9.75238 12.9597 9.73026C13.3715 9.70337 13.7404 9.81023 14.094 10.0144C15.3976 10.7679 16.7033 11.5179 18.0112 12.2645C18.5418 12.5688 19.0662 12.8805 19.6032 13.1749C20.2423 13.5264 20.5407 14.0661 20.5404 14.7849C20.5404 15.4314 20.538 16.078 20.5404 16.7246C20.5404 16.8696 20.5196 16.9764 20.3736 17.0591C19.5753 17.5104 18.7837 17.9735 17.9891 18.4312C17.9685 18.4454 17.9444 18.4536 17.9194 18.4549C17.8944 18.4562 17.8696 18.4506 17.8475 18.4387C17.79 18.3438 17.8183 18.2294 17.8179 18.1209C17.8149 17.5199 17.8108 16.9189 17.8179 16.3173C17.8261 15.6285 17.5185 15.119 16.9376 14.7777C16.2838 14.3932 15.6179 14.029 14.957 13.6574C14.6415 13.4794 14.325 13.3025 14.0109 13.1224C13.7956 13.0003 13.5629 12.9119 13.3208 12.8604C12.9577 12.7811 12.6211 12.8461 12.306 13.0129C11.7754 13.2936 11.2544 13.5914 10.7307 13.8841C10.2168 14.1716 9.70534 14.4626 9.19181 14.7508C8.60036 15.0819 8.27911 15.5604 8.28966 16.2631C8.30667 17.4079 8.30395 18.5538 8.28966 19.7003C8.28217 20.3325 8.56497 20.8035 9.07884 21.1119C10.127 21.741 11.1876 22.3492 12.2607 22.9366C12.8338 23.251 13.4208 23.2347 14.0055 22.8954C16.1494 21.6509 18.2964 20.4112 20.4659 19.2092C21.7138 18.5187 22.9375 17.784 24.1698 17.0653C24.5662 16.8342 24.9668 16.6412 25.4463 16.6719C25.7349 16.6902 26.0013 16.7525 26.2542 16.8965C28.173 17.9875 30.0938 19.0758 32.0163 20.1614C32.6383 20.5112 32.9501 21.0213 32.9487 21.7356C32.9451 23.8789 32.9451 26.0222 32.9487 28.1654C32.9487 28.846 32.6696 29.3687 32.0779 29.7104C31.323 30.146 30.5638 30.5745 29.8046 31.0036C28.6609 31.6488 27.516 32.2922 26.3699 32.9338C25.728 33.2928 25.0934 33.3058 24.439 32.9338C22.5704 31.8675 20.6965 30.8113 18.8171 29.7652C18.4043 29.5338 18.0926 29.2309 17.9496 28.7684C17.9093 28.6388 17.8889 28.5037 17.8891 28.3679C17.8891 27.6532 17.8942 26.9386 17.886 26.224C17.884 26.0358 17.9306 25.9177 18.1099 25.8187C18.8532 25.4082 19.5852 24.9771 20.3219 24.5558C20.3862 24.5173 20.4502 24.4615 20.5615 24.4884Z" fill="#8348E5"/>
<path d="M86.0276 24.9475C85.5171 25.4896 84.9519 25.8911 84.2621 26.0963C82.4942 26.6228 80.8733 26.3553 79.4893 25.0992C78.6341 24.3233 78.128 23.3334 77.9752 22.1767C77.8241 21.0298 77.9926 19.9398 78.6177 18.9536C79.377 17.7564 80.4135 16.8951 81.8405 16.6691C83.0778 16.4731 84.3002 16.5966 85.4256 17.23C85.6345 17.3477 85.7976 17.5226 85.9912 17.6751C86.1083 17.5492 86.1447 17.3919 86.2005 17.2494C86.2631 17.0887 86.3574 17.0309 86.5313 17.0329C87.2912 17.0418 88.0511 17.0353 88.8113 17.0377C89.0628 17.0377 89.0669 17.0424 89.0672 17.3055C89.0688 18.4399 89.0688 19.5742 89.0672 20.7086C89.0672 22.4782 89.0672 24.2478 89.0672 26.0174C89.0672 27.1588 88.6548 28.1341 87.8598 28.9491C86.9464 29.886 85.8118 30.3784 84.5391 30.5778C83.6315 30.7217 82.7047 30.6884 81.8098 30.4798C80.891 30.2643 80.0363 29.8342 79.3157 29.2248C79.1704 29.1036 78.9165 29.0206 78.9216 28.8372C78.9254 28.6932 79.1221 28.5513 79.2405 28.4148C79.6405 27.9536 80.0424 27.494 80.4462 27.0359C80.6187 26.8396 80.6194 26.8416 80.8022 27.006C81.1922 27.3565 81.6189 27.6543 82.112 27.838C83.0863 28.2018 84.0518 28.2015 84.9948 27.7182C85.6801 27.3667 86.0521 26.8215 86.0296 26.031C86.0191 25.6686 86.0276 25.3078 86.0276 24.9475ZM86.0276 21.4651C86.0276 21.2269 86.0045 20.9887 86.0324 20.7528C86.0909 20.2635 85.8357 19.9194 85.5015 19.6444C84.7742 19.0458 83.9252 18.825 82.9999 19.0132C82.2478 19.1663 81.6387 19.5628 81.2643 20.2536C80.6535 21.3855 81.0547 22.8593 82.1471 23.5617C82.8386 24.0062 83.5764 24.0582 84.3543 23.8557C84.9788 23.6934 85.4933 23.3766 85.8775 22.8532C85.9825 22.7192 86.0363 22.552 86.029 22.3819C86.0191 22.0766 86.0276 21.7707 86.0276 21.4651Z" fill="white"/>
<path d="M41.5218 17.8449C42.0761 17.4365 42.6285 17.0846 43.2519 16.8641C44.2909 16.4969 45.353 16.3982 46.413 16.7215C47.8018 17.1445 48.7475 18.0709 49.2468 19.4311C49.6619 20.5626 49.7375 21.7349 49.4401 22.8978C49.0882 24.2736 48.2861 25.3072 46.9344 25.8608C45.7389 26.3505 44.5199 26.5074 43.2608 26.1508C42.6894 25.9888 42.1585 25.7448 41.7243 25.3276C41.6171 25.4035 41.6613 25.5018 41.661 25.5825C41.6578 27.0571 41.657 28.5307 41.6586 30.0031C41.6586 30.0711 41.6531 30.1392 41.6586 30.2072C41.6739 30.3631 41.6246 30.4353 41.451 30.4244C41.2366 30.4104 41.0205 30.421 40.8044 30.421C40.181 30.421 39.5575 30.4142 38.9327 30.425C38.75 30.4281 38.6863 30.3665 38.7054 30.193C38.7091 30.1249 38.7091 30.0568 38.7054 29.9888V17.2368C38.7054 17.1803 38.7054 17.1234 38.7054 17.0666C38.7016 16.7876 38.7037 16.8093 38.9654 16.8093C39.6681 16.8093 40.3712 16.8131 41.0753 16.807C41.224 16.807 41.2945 16.841 41.3217 17.0026C41.3717 17.2773 41.45 17.5461 41.5218 17.8449ZM41.726 21.4913C41.726 21.7973 41.726 22.1036 41.726 22.4101C41.726 22.5231 41.729 22.6323 41.7825 22.7395C41.9887 23.1554 42.2698 23.4937 42.6897 23.7149C43.2727 24.0303 43.9532 24.1143 44.5954 23.95C45.371 23.7615 45.9727 23.3255 46.3208 22.5939C46.5607 22.0896 46.6053 21.5478 46.4787 21.0063C46.2943 20.2189 45.8774 19.5988 45.1198 19.2487C44.7513 19.0785 44.3596 19.0401 43.9628 19.0588C43.078 19.0999 42.3433 19.429 41.8434 20.1961C41.7648 20.3065 41.7238 20.4393 41.7263 20.5748C41.7324 20.8794 41.7266 21.1854 41.7266 21.4913H41.726Z" fill="white"/>
<path d="M96.0383 26.2937C94.9582 26.2845 93.9233 26.0807 92.9875 25.5188C91.7212 24.7586 91.0116 23.6335 90.8343 22.1654C90.7254 21.2626 90.7853 20.3778 91.1359 19.5355C91.6085 18.3996 92.429 17.5798 93.55 17.0822C95.1226 16.3856 96.7312 16.3196 98.3269 16.9669C99.9413 17.6216 100.896 18.8552 101.195 20.567C101.458 22.0752 101.104 23.4385 100.12 24.6262C99.6218 25.2275 98.9769 25.611 98.2592 25.8874C97.5511 26.1613 96.7976 26.2992 96.0383 26.2937ZM98.2095 21.6522C98.2044 20.6994 98.0125 20.0562 97.4948 19.5855C96.2412 18.4465 94.4242 19.0788 93.9124 20.4945C93.6742 21.1482 93.7178 21.805 93.9642 22.4509C94.3882 23.5637 95.2087 24.0582 96.3858 23.8891C96.8733 23.8232 97.3181 23.5759 97.6313 23.1965C97.9942 22.7626 98.1982 22.2178 98.2095 21.6522Z" fill="white"/>
<path d="M55.9059 16.6058C57.0793 16.5817 58.107 16.8461 59.0221 17.4716C60.1843 18.2665 60.8785 19.3596 61.0558 20.7702C61.147 21.4971 61.1307 22.2189 60.9057 22.9141C60.4031 24.4714 59.3869 25.5396 57.8089 26.0313C56.1754 26.5418 54.5729 26.456 53.0361 25.6811C51.7072 25.0114 50.9718 23.8932 50.7081 22.4482C50.5177 21.4423 50.6262 20.4026 51.0201 19.4576C51.4118 18.5047 52.0931 17.8136 52.9789 17.3249C53.9066 16.8148 54.9064 16.5551 55.9059 16.6058ZM55.8379 23.9098C56.8282 23.9827 57.7776 23.2633 57.9975 22.2267C58.0818 21.8289 58.1278 21.4348 58.0655 21.0227C57.9672 20.3669 57.6983 19.8204 57.1763 19.4049C56.1309 18.5718 54.5529 18.9356 53.9702 20.0572C53.6259 20.7019 53.5358 21.4522 53.7177 22.16C53.9604 23.1455 54.7656 23.9616 55.8365 23.9098H55.8379Z" fill="white"/>
<path d="M105.904 18.3734C106.13 18.1277 106.279 17.9027 106.47 17.7118C107.121 17.0601 107.906 16.696 108.818 16.6228C109.473 16.5708 110.134 16.5548 110.758 16.8178C111.764 17.2405 112.391 17.9528 112.504 19.0778C112.542 19.4624 112.543 19.8452 112.543 20.2291C112.545 22.0429 112.545 23.857 112.543 25.6713C112.543 25.7506 112.538 25.8306 112.543 25.9095C112.554 26.0412 112.499 26.0895 112.368 26.0892C111.472 26.0858 110.576 26.0858 109.679 26.0892C109.554 26.0892 109.486 26.0528 109.499 25.9139C109.507 25.8353 109.499 25.7553 109.499 25.6757V20.5398C109.499 20.3479 109.496 20.158 109.442 19.9691C109.283 19.4076 108.904 19.0942 108.321 19.0574C107.495 19.0053 106.907 19.3885 106.508 20.0811C106.141 20.7198 105.969 21.4208 105.964 22.1569C105.955 23.382 105.961 24.6071 105.962 25.8306C105.962 26.0967 105.979 26.0905 105.704 26.0902C104.887 26.0902 104.07 26.0902 103.253 26.0902C103.015 26.0902 103.012 26.0854 103.012 25.852C103.01 22.995 103.01 20.1379 103.012 17.2807C103.012 17.0465 103.018 17.0424 103.26 17.0424C103.997 17.0404 104.734 17.0462 105.472 17.0387C105.653 17.037 105.729 17.0816 105.744 17.2807C105.777 17.6213 105.844 17.965 105.904 18.3734Z" fill="white"/>
<path d="M72.7915 22.34C73.0403 21.7993 73.2591 21.329 73.4721 20.8566C74.0225 19.6419 74.5705 18.4261 75.1161 17.2092C75.1692 17.0901 75.2274 17.0333 75.3639 17.0343C76.1806 17.0394 76.9974 17.0367 77.8301 17.0367C77.7685 17.3661 77.6007 17.6376 77.4745 17.9215C75.6729 21.9809 73.8707 26.04 72.068 30.0987C71.9475 30.3709 71.8087 30.4598 71.5167 30.4502C70.8147 30.4268 70.1109 30.4434 69.4068 30.4417C69.2976 30.4417 69.1853 30.4587 69.0498 30.4108C69.1897 30.1001 69.3221 29.8026 69.4582 29.5079C70.0221 28.2869 70.5836 27.0645 71.1573 25.8479C71.2346 25.6842 71.2254 25.5641 71.1488 25.4082C70.4696 24.0525 69.795 22.6943 69.125 21.3337C68.4583 19.9843 67.794 18.6344 67.1322 17.2841C67.0982 17.216 67.0699 17.1439 67.0229 17.0373H67.4909C68.3529 17.0373 69.2145 17.0459 70.0772 17.0316C70.3028 17.0278 70.4206 17.0908 70.5145 17.3038C71.1611 18.76 71.8223 20.21 72.4788 21.6621C72.572 21.8653 72.6673 22.0698 72.7915 22.34Z" fill="white"/>
<path d="M62.8905 17.9449C62.8905 15.3382 62.8905 12.7315 62.8905 10.125C62.8905 9.71868 62.8499 9.75611 63.2491 9.75543C64.0205 9.75543 64.7912 9.75543 65.5612 9.75543C65.8586 9.75543 65.861 9.75815 65.8613 10.0471C65.8627 11.0106 65.8627 11.9739 65.8613 12.937C65.8613 17.1872 65.8613 21.4372 65.8613 25.6869C65.8613 26.1314 65.9294 26.0861 65.469 26.0875C64.7325 26.0895 63.9959 26.0895 63.259 26.0875C62.8367 26.0875 62.8911 26.1168 62.8908 25.7302C62.8899 23.1354 62.8898 20.5404 62.8905 17.9449Z" fill="white"/>
</svg>

<svg width="118" height="43" fill="none" xmlns="http://www.w3.org/2000/svg"><path d="M20.561 24.488c0 .674-.005 1.352.003 2.03.004.365.062.72.272 1.034.176.265.414.484.692.638.938.527 1.879 1.048 2.81 1.587.702.409 1.37.416 2.075-.02.953-.59 1.935-1.133 2.905-1.695.549-.318.813-.803.816-1.43.006-1.122 0-2.245.003-3.368.002-.684-.293-1.199-.879-1.541-.547-.32-1.102-.627-1.654-.94-.424-.238-.85-.476-1.272-.718-.626-.36-1.244-.402-1.892-.03-2.12 1.22-4.244 2.431-6.373 3.635-1.338.761-2.678 1.52-4.018 2.277-.657.37-1.306.352-1.967-.025-1.878-1.072-3.766-2.125-5.647-3.192-.567-.32-.869-.802-.867-1.47.005-2.2.005-4.4 0-6.6 0-.62.256-1.094.793-1.403.912-.525 1.83-1.042 2.746-1.56.976-.551 1.952-1.1 2.93-1.65.288-.16.583-.295.923-.317.411-.027.78.08 1.134.284 1.304.754 2.61 1.504 3.917 2.25.53.305 1.055.617 1.592.91.64.352.938.892.937 1.61 0 .647-.002 1.294 0 1.94 0 .146-.02.252-.166.335-.799.451-1.59.915-2.385 1.372a.135.135 0 0 1-.142.008c-.057-.095-.029-.21-.03-.318-.002-.601-.006-1.202 0-1.804.01-.688-.299-1.198-.88-1.54-.653-.384-1.32-.748-1.98-1.12-.316-.178-.632-.354-.946-.535a2.42 2.42 0 0 0-.69-.262c-.363-.079-.7-.014-1.015.153-.53.28-1.052.578-1.575.871-.514.288-1.026.579-1.54.867-.59.33-.912.81-.901 1.512.017 1.145.014 2.29 0 3.437-.008.633.275 1.104.789 1.412a92.32 92.32 0 0 0 3.182 1.825c.573.314 1.16.298 1.745-.042a371.81 371.81 0 0 1 6.46-3.686c1.248-.69 2.471-1.425 3.704-2.144.396-.23.797-.424 1.276-.393.289.018.555.08.808.224 1.919 1.091 3.84 2.18 5.762 3.265.622.35.934.86.933 1.575-.004 2.143-.004 4.286 0 6.43 0 .68-.28 1.203-.871 1.544-.755.436-1.514.864-2.273 1.294a1199.37 1199.37 0 0 1-3.435 1.93c-.642.359-1.277.372-1.931 0a606.196 606.196 0 0 0-5.622-3.169c-.413-.231-.724-.534-.867-.997-.04-.13-.061-.264-.06-.4 0-.715.004-1.43-.004-2.144-.002-.188.045-.306.224-.405.743-.41 1.475-.842 2.212-1.263.064-.039.128-.095.24-.068Z" fill="#8348E5"/><path d="M86.028 24.948c-.51.542-1.076.943-1.766 1.148-1.768.527-3.389.26-4.773-.997-.855-.776-1.361-1.766-1.514-2.922-.15-1.147.018-2.237.643-3.223.759-1.198 1.796-2.059 3.223-2.285 1.237-.196 2.46-.072 3.585.561.209.118.372.293.565.445.117-.126.154-.283.21-.426.062-.16.156-.218.33-.216.76.009 1.52.002 2.28.005.252 0 .256.004.256.267.002 1.135.002 2.27 0 3.404v5.308c0 1.142-.412 2.117-1.207 2.932-.914.937-2.048 1.43-3.32 1.629a7.115 7.115 0 0 1-2.73-.098 5.976 5.976 0 0 1-2.494-1.255c-.146-.121-.4-.204-.394-.388.003-.144.2-.286.319-.422.4-.461.801-.921 1.205-1.38.173-.195.173-.193.356-.029.39.35.817.648 1.31.832.974.364 1.94.363 2.883-.12.685-.351 1.057-.896 1.035-1.687-.01-.362-.002-.723-.002-1.083Zm0-3.483c0-.238-.024-.476.004-.712.059-.49-.196-.834-.53-1.109-.728-.598-1.577-.819-2.502-.63-.752.152-1.361.549-1.736 1.24-.61 1.131-.21 2.605.883 3.308.692.444 1.43.496 2.207.294.625-.163 1.14-.48 1.523-1.003a.715.715 0 0 0 .152-.471c-.01-.305-.001-.611-.001-.917ZM41.522 17.845c.554-.409 1.107-.76 1.73-.98 1.039-.368 2.101-.467 3.161-.143 1.389.422 2.335 1.349 2.834 2.71.415 1.13.49 2.303.193 3.466-.352 1.376-1.154 2.41-2.506 2.963-1.195.49-2.414.646-3.673.29-.572-.162-1.103-.406-1.537-.823-.107.076-.063.174-.063.255-.003 1.474-.004 2.948-.002 4.42 0 .068-.006.136 0 .204.015.156-.034.228-.208.217-.214-.014-.43-.003-.647-.003-.623 0-1.247-.007-1.871.004-.183.003-.247-.059-.228-.232a1.88 1.88 0 0 0 0-.204V17.067c-.003-.28-.001-.258.26-.258.703 0 1.406.004 2.11-.002.149 0 .22.034.247.196.05.274.128.543.2.842Zm.204 3.646v.92c0 .112.003.221.056.328.207.416.488.755.908.976.583.315 1.263.4 1.905.235.776-.188 1.378-.624 1.726-1.356.24-.504.284-1.046.158-1.588-.185-.787-.602-1.407-1.36-1.757-.368-.17-.76-.209-1.156-.19-.885.04-1.62.37-2.12 1.137a.633.633 0 0 0-.117.379c.006.304 0 .61 0 .916ZM96.038 26.294c-1.08-.01-2.115-.213-3.05-.775-1.267-.76-1.976-1.885-2.154-3.354-.109-.902-.049-1.787.302-2.63.473-1.135 1.293-1.955 2.414-2.453 1.573-.696 3.181-.762 4.777-.115 1.614.655 2.569 1.888 2.868 3.6.263 1.508-.091 2.872-1.075 4.06-.498.6-1.143.984-1.86 1.26a6.035 6.035 0 0 1-2.222.407Zm2.172-4.642c-.006-.953-.197-1.596-.715-2.067-1.254-1.139-3.07-.506-3.583.91-.238.653-.194 1.31.052 1.956.424 1.113 1.245 1.607 2.422 1.438a1.955 1.955 0 0 0 1.245-.692c.363-.434.567-.98.579-1.545ZM55.906 16.606c1.173-.024 2.201.24 3.116.866 1.162.794 1.857 1.888 2.034 3.298.091.727.075 1.449-.15 2.144-.503 1.557-1.52 2.626-3.097 3.117-1.634.51-3.236.425-4.773-.35-1.329-.67-2.064-1.788-2.328-3.233a5.24 5.24 0 0 1 .312-2.99c.392-.953 1.073-1.644 1.959-2.133.928-.51 1.927-.77 2.927-.72Zm-.068 7.304c.99.073 1.94-.647 2.16-1.683.084-.398.13-.792.068-1.204-.099-.656-.368-1.203-.89-1.618-1.045-.833-2.623-.47-3.206.652a2.92 2.92 0 0 0-.252 2.103c.242.985 1.048 1.802 2.118 1.75h.002ZM105.904 18.373c.226-.245.375-.47.566-.661a3.638 3.638 0 0 1 2.348-1.09c.655-.051 1.316-.067 1.94.196 1.006.422 1.633 1.135 1.746 2.26.038.384.039.767.039 1.151.002 1.814.002 3.628 0 5.442 0 .08-.005.16 0 .239.011.131-.044.18-.175.18-.896-.004-1.792-.004-2.689 0-.125 0-.193-.037-.18-.176.008-.079 0-.159 0-.238V20.54a2.04 2.04 0 0 0-.057-.57c-.159-.562-.538-.876-1.121-.913-.826-.052-1.414.332-1.813 1.024a4.165 4.165 0 0 0-.544 2.076c-.009 1.225-.003 2.45-.002 3.674 0 .266.017.26-.258.26h-2.451c-.238 0-.241-.006-.241-.239-.002-2.857-.002-5.714 0-8.571 0-.234.006-.239.248-.239.737-.002 1.474.004 2.212-.003.181-.002.257.043.272.242.033.34.1.684.16 1.092ZM72.791 22.34c.25-.54.468-1.011.681-1.483.55-1.215 1.099-2.43 1.644-3.648.053-.119.111-.176.248-.175.817.005 1.633.003 2.466.003-.061.33-.23.6-.355.885l-5.407 12.177c-.12.272-.26.36-.551.351-.702-.023-1.406-.007-2.11-.008-.11 0-.222.017-.357-.031.14-.31.272-.608.408-.903.564-1.221 1.126-2.444 1.7-3.66a.447.447 0 0 0-.01-.44 1416.425 1416.425 0 0 1-4.017-8.124c-.033-.068-.061-.14-.108-.247h.468c.862 0 1.724.009 2.586-.005.226-.004.344.059.438.272.646 1.456 1.307 2.906 1.964 4.358l.313.678ZM62.89 17.945v-7.82c0-.406-.04-.369.36-.37h2.311c.298 0 .3.003.3.292.002.964.002 1.927 0 2.89v12.75c0 .444.068.4-.392.4-.736.003-1.473.003-2.21 0-.422 0-.368.03-.368-.357v-7.785Z" fill="#fff"/></svg>
